X: 15936
T: Grania's Welcome Home
R: reel
M: 4/4
K: Amixolydian
|:cdBc ABcd|eaec eaec|(3cdc Bc ABcA|1 ~d3c dfed:|2 ~d3c dfeg||
fdfa ecAc|e_e=ef ecAg|fdfa ecAc|~d3c dfeg|
fdfa ecAc|e_e=ef ecAg|fdf^g aecA|dcde (3f^ga ed||

